X: 11449
T: Eavesdropper, The
R: jig
M: 6/8
K: Gmajor
|:D2B BAG|B3 dBG|cee dBG|BAA ABA|
D3 BAG|B3 dBG|cee dBA|BGG G3:|
d|:gab afd|efg dBG|cee dBG|BAA ABd|
g2b afd|efg dBG|cee dBA|BGG G3:|

